X:1
T:39.  Come, Thou Almighty King
T:F.  De Giardini
T:C.  Wesley
T:39.  Come, Thou Almighty King
C:F.  De Giardini
Z:C.  Wesley
%%score { ( 1 3 ) | ( 2 4 ) }
L:1/8
M:3/4
K:G
V:1 treble nm="Piano" snm="Pno."
V:3 treble 
V:2 bass 
V:4 bass 
V:1
"^This stirring composition, called \"Italian Hymn,\" was written by  Giardini Felice (1716-1796), and with thesewords has become one of the most widely used hymns. The words, generally attributed to Charles Wesley, appeared in1756. The hymn has been translated into several languages and is sung by many nations." [Gd]2 [DB]2 [DG]2 | %1
w: 1.~Come, Thou al-|
w: 2.~Come, Thou in-|
w: 3.~Come, Ho- ly|
 (([EA]2 [DG]2)) [DF]2 | [DG]6 | [DG]2 [DA]2 [GB]2 | ((cd [Ac]2)) [GB]2 | [FA]6 | d2 B2 G2 | D6 | %8
w: might- * y|King,|Help us Thy|name * * to|sing,|Help us to|praise!|
w: car- * nate|Word,|Gird on They|might- * * y|sword,|Our prayer at-|tend!|
w: Com- * fort-|er,|Thy sa- cred|wit- * * ness|bear,|In this glad|hour!|
 [FA]2 [GB]2 [Ac]2 | [GB]3 [FA] G2 | [FA]2 [GB]2 [Ac]2 | [GB]3 [FA] G2 | G2 B2 d2 | %13
w: Fa- ther all-|glo- ri- ous,|O'er all vic-|to- ri- ous,|Come and reign|
w: Come, and Thy|peo- ple bless,|And give Thy|word suc- cess:|Spir- it of|
w: Thou, who al-|might- y art,|Now rule in|ev- 'ry heart,|And ne'er from|
 [Gd]3 [Ge] [Gd]2 | [Ac]2 [GB]2 [FA]2 | G6 |] %16
w: o- ver us,|An- cient of|days!|
w: ho- li- ness,|On us de-|scend!|
w: us de- part,|Spir- it of|pow'r!|
V:2
 [G,B,]2 G,2 [B,,D]2 | [C,C]2 [D,B,]2 [D,A,]2 | [G,,B,]6 | [G,B,]2 [F,D]2 [G,D]2 | D4 [G,D]2 | %5
 [D,D]6 | D2 B,2 G,2 | D,6 | [D,D]2 [D,D]2 [D,D]2 | [G,D]3 [G,C] [G,B,]2 | [D,D]2 [D,D]2 [D,D]2 | %11
 [G,D]3 [G,C] [G,B,]2 | G,2 B,2 D2 | [G,B,]3 [G,C] [G,B,]2 | [C,E]2 [D,D]2 [D,C]2 | [G,,B,]6 |] %16
V:3
 x6 | x6 | x6 | x6 | F2 x4 | x6 | x6 | x6 | x6 | x6 | x6 | x6 | x6 | x6 | x6 | x6 |] %16
V:4
 x6 | x6 | x6 | x6 | A,2 F,2 x2 | x6 | x6 | x6 | x6 | x6 | x6 | x6 | x6 | x6 | x6 | x6 |] %16

